X:1
T: Jump At The Sun
C: John Kirkpatrick
Z: Chee Z
S: https://thesession.org/tunes/736#setting41702
R: jig
M: 6/8
L: 1/8
K: Emin
|:EGB ^A2 B|EGB ^A2 B|eBB eBB|BcB A2 G|
EGB ^A2 B|EGB ^A2 B|eBB eBB|GAG E3:|
|:eBe gfe|fBf agf|eBe gfe|fBB B2 c|
eBe gfe|fBf agf|BeB cBA|GAG E3:|

